blockchains/ethereum/assets/0x320623b8E4fF03373931769A31Fc52A4E78B5d70/logo.svg

<svg width="250" height="250" viewBox="0 0 250 250" fill="none" xmlns="http://www.w3.org/2000/svg">
<g clip-path="url(#clip0_31_1137)">
<path d="M124.95 249.002C193.406 249.002 248.9 193.507 248.9 125.052C248.9 56.5959 193.406 1.10156 124.95 1.10156C56.4943 1.10156 1 56.5959 1 125.052C1 193.507 56.4943 249.002 124.95 249.002Z" fill="black"/>
<path d="M182.1 110.802V93.3516C182.1 92.6016 181.5 91.9516 180.7 91.9516H159.1C158.35 91.9516 157.7 91.3516 157.7 90.5516V64.5016C157.7 63.7516 157.1 63.1016 156.3 63.1016H138.85C138.1 63.1016 137.45 63.7016 137.45 64.5016V90.6516C137.45 91.4016 136.85 92.0516 136.05 92.0516H113.65C112.9 92.0516 112.25 91.4516 112.25 90.6516V64.5016C112.25 63.7516 111.65 63.1016 110.85 63.1016H93.4001C92.6501 63.1016 92.0001 63.7016 92.0001 64.5016V90.6516C92.0001 91.4016 91.4001 92.0516 90.6001 92.0516H69.0001C68.2501 92.0516 67.6001 92.6516 67.6001 93.4516V110.902C67.6001 111.652 68.2001 112.302 69.0001 112.302H90.6001C91.3501 112.302 92.0001 112.902 92.0001 113.702V140.852C92.0001 141.602 91.4001 142.252 90.6001 142.252H69.0001C68.2501 142.252 67.6001 142.852 67.6001 143.652V161.102C67.6001 161.852 68.2001 162.502 69.0001 162.502H90.6001C91.3501 162.502 92.0001 163.102 92.0001 163.902V190.052C92.0001 190.802 92.6001 191.452 93.4001 191.452H110.85C111.6 191.452 112.25 190.852 112.25 190.052V163.902C112.25 163.152 112.85 162.502 113.65 162.502H136.05C136.8 162.502 137.45 163.102 137.45 163.902V190.052C137.45 190.802 138.05 191.452 138.85 191.452H156.3C157.05 191.452 157.7 190.852 157.7 190.052V163.902C157.7 163.152 158.3 162.502 159.1 162.502H180.7C181.45 162.502 182.1 161.902 182.1 161.102V143.652C182.1 142.902 181.5 142.252 180.7 142.252H159.1C158.35 142.252 157.7 141.652 157.7 140.852V113.702C157.7 112.952 158.3 112.302 159.1 112.302H180.7C181.5 112.202 182.1 111.602 182.1 110.802ZM136.2 142.102H113.8C113.05 142.102 112.4 141.502 112.4 140.702V113.552C112.4 112.802 113 112.152 113.8 112.152H136.2C136.95 112.152 137.6 112.752 137.6 113.552V140.702C137.6 141.452 136.95 142.102 136.2 142.102Z" fill="white"/>
</g>
<defs>
<clipPath id="clip0_31_1137">
<rect width="250" height="250" fill="white"/>
</clipPath>
</defs>
</svg>

<svg fill="none" height="250" viewBox="0 0 250 250" width="250" xmlns="http://www.w3.org/2000/svg" xmlns:xlink="http://www.w3.org/1999/xlink"><clipPath id="a"><path d="m0 0h250v250h-250z"/></clipPath><g clip-path="url(#a)"><path d="m124.95 249.002c68.456 0 123.95-55.495 123.95-123.95 0-68.4561-55.494-123.95044-123.95-123.95044-68.4557 0-123.95 55.49434-123.95 123.95044 0 68.455 55.4943 123.95 123.95 123.95z" fill="#000"/><path d="m182.1 110.802v-17.4504c0-.75-.6-1.4-1.4-1.4h-21.6c-.75 0-1.4-.6-1.4-1.4v-26.05c0-.75-.6-1.4-1.4-1.4h-17.45c-.75 0-1.4.6-1.4 1.4v26.15c0 .75-.6 1.4-1.4 1.4h-22.4c-.75 0-1.4-.6-1.4-1.4v-26.15c0-.75-.6-1.4-1.4-1.4h-17.4499c-.75 0-1.4.6-1.4 1.4v26.15c0 .75-.6 1.4-1.4 1.4h-21.6c-.75 0-1.4.6-1.4 1.4v17.4504c0 .75.6 1.4 1.4 1.4h21.6c.75 0 1.4.6 1.4 1.4v27.15c0 .75-.6 1.4-1.4 1.4h-21.6c-.75 0-1.4.6-1.4 1.4v17.45c0 .75.6 1.4 1.4 1.4h21.6c.75 0 1.4.6 1.4 1.4v26.15c0 .75.6 1.4 1.4 1.4h17.4499c.75 0 1.4-.6 1.4-1.4v-26.15c0-.75.6-1.4 1.4-1.4h22.4c.75 0 1.4.6 1.4 1.4v26.15c0 .75.6 1.4 1.4 1.4h17.45c.75 0 1.4-.6 1.4-1.4v-26.15c0-.75.6-1.4 1.4-1.4h21.6c.75 0 1.4-.6 1.4-1.4v-17.45c0-.75-.6-1.4-1.4-1.4h-21.6c-.75 0-1.4-.6-1.4-1.4v-27.15c0-.75.6-1.4 1.4-1.4h21.6c.8-.1 1.4-.7 1.4-1.5zm-45.9 31.3h-22.4c-.75 0-1.4-.6-1.4-1.4v-27.15c0-.75.6-1.4 1.4-1.4h22.4c.75 0 1.4.6 1.4 1.4v27.15c0 .75-.65 1.4-1.4 1.4z" fill="#fff"/></g></svg>
